X:1
T:Walter Sammon's Grandmother
R:reel
M:4/4
L:1/8
K:D
|:FAAF ~A2dB|AFDE FEED|FAAF ~A2dB|AFEG FD~D2:|
|FAdA BAdA|FAdA FE~E2|FAdA ~B2Bd|AFEG FD~D2|
|FAdA BAdA|FAdA FE~E2|dcBA BcdB|AFEG FD~D2|